libs/ui/packages/crypto-icons/src/svg/ARK.svg

<svg width="24" height="24" viewBox="0 0 24 24" fill="none">
<path d="M11.9602 10.0103L3.75 18.6675L11.997 5.25L20.25 18.75L11.9602 10.0103ZM13.1512 13.449H10.5848L11.9047 11.997L13.1512 13.4618V13.449ZM8.20125 15.8317V15.8137L9.657 14.3235V14.3168L14.097 14.298L15.5955 15.8317H8.202H8.20125Z" fill="#F70000"/>
</svg>

<svg width="24" height="24" viewBox="0 0 24 24" fill="none"><path fill="#f70000" d="m11.96 10.01-8.21 8.658L11.997 5.25l8.253 13.5zm1.191 3.439h-2.566l1.32-1.452 1.246 1.465zm-4.95 2.383v-.018l1.456-1.49v-.007l4.44-.019 1.499 1.534z"/></svg>
